packages/tokens/icons/expandPlatform/size16Px.svg

<svg viewBox="0 0 16 16" fill="none" xmlns="http://www.w3.org/2000/svg" width="1em" height="1em"><path d="M1.63604 9.09679C1.05025 8.51101 1.05025 7.56126 1.63604 6.97547L6.93934 1.67217C7.52513 1.08639 8.47487 1.08639 9.06066 1.67217L14.364 6.97547C14.9497 7.56126 14.9497 8.51101 14.364 9.09679L9.06066 14.4001C8.47487 14.9859 7.52513 14.9859 6.93934 14.4001L1.63604 9.09679Z" stroke="currentColor"/><path d="M5.75014 6.24962L7.99994 4L10.2496 6.24962" stroke="currentColor" stroke-linecap="round" stroke-linejoin="round"/><path d="M5.52519 12.7071C5.13466 12.3166 5.13466 11.6834 5.52519 11.2929L7.29295 9.52513C7.68348 9.1346 8.31664 9.1346 8.70717 9.52513L10.4749 11.2929C10.8655 11.6834 10.8655 12.3166 10.4749 12.7071L8.70717 14.4749C8.31664 14.8654 7.68348 14.8654 7.29295 14.4749L5.52519 12.7071Z" stroke="currentColor"/></svg>

<svg xmlns="http://www.w3.org/2000/svg" fill="none" viewBox="0 0 16 16" width="1em" height="1em"><path stroke="currentColor" d="M1.636 9.097a1.5 1.5 0 0 1 0-2.122l5.303-5.303a1.5 1.5 0 0 1 2.122 0l5.303 5.303a1.5 1.5 0 0 1 0 2.122L9.061 14.4a1.5 1.5 0 0 1-2.122 0L1.636 9.097Z"/><path stroke="currentColor" stroke-linecap="round" stroke-linejoin="round" d="M5.75 6.25 8 4l2.25 2.25"/><path stroke="currentColor" d="M5.525 12.707a1 1 0 0 1 0-1.414l1.768-1.768a1 1 0 0 1 1.414 0l1.768 1.768a1 1 0 0 1 0 1.414l-1.768 1.768a1 1 0 0 1-1.414 0l-1.768-1.768Z"/></svg>
